X: 32135
T: Peter MacKinnon Of Skeabost
R: reel
M: 4/4
K: Bminor
f|B2cB BfB2|feef a4|f2ef fce2|fccB AecA|
B2cB BfB2|feef a4|faaf a2Aa|feac BBB||
e|feef a4|f2ef fce2|fccf e2cB|AAAf ecBA|
feef a4|f2ef fce2|faaf a2Aa|feac BBB||
f|B2fe efB2|feef e4|fccB AAAB|Accf ecBA|
B2fe efB2|feef e4|faaf a2Aa|feac BBB||
e|faaA BBBc|fefa f2ef|fcef cAAc|Accf ecBA|
faaA BBBc|fefa f2ef|faaf a2Aa|feac BBB||

